X:1
T:Title
%%score { ( 1 3 ) | ( 2 4 ) }
L:1/8
Q:1/4=100
M:4/4
K:Db
V:1 treble nm="Grand Piano"
V:3 treble 
V:2 bass 
V:4 bass 
V:1
 A2 A2 A2 [Ad]2 | z4 c4 | d2 c2 B2 z _F | [F=A]4 z4 | [DFA]2 [Fd]2 [Gd]2 [Ad]2 | [Bd]4 [_FBd]4 | %6
w: Robert~Harkness * * *||||||
 [FAd]2 [EAc]2 [DGB]2 [CGA]2 | [DFA]6 z2 |] %8
w: ||
V:2
 [D,F,D]2 [E,G,C]2 [F,A,D]2 [F,A,]2 | z4[K:treble] [EG]4 | %2
 [B,DF]2 [=A,EF]2 [B,DF]2[K:bass] .[G,B,F]2 | F,4 E,4 | D,2 [D,_C]2 [E,C]2 [F,C]2 | B,2 z2 z4 | %6
 A,2 A,2 A,,2 A,,2 | D,6 z2 |] %8
V:3
 x8 | [Gd]4 z2 =A,2 | z4 z2 B2 | C4- [CG_A]4 | x8 | x8 | x8 | x8 |] %8
V:4
 x8 | [E,A,]4[K:treble] A,2 z2 | x6[K:bass] x2 | x8 | x8 | G,2- [G,E]2 =G,4 | x8 | x8 |] %8

